icons/military_worker.svg

<svg width="48" height="48" viewBox="0 0 48 48" fill="none" xmlns="http://www.w3.org/2000/svg">
<path d="M23.8268 9.12528C23.8811 8.95824 24.1173 8.95824 24.1716 9.12528L24.6657 10.6458C24.69 10.7205 24.7596 10.771 24.8381 10.771H26.4369C26.6124 10.771 26.6855 10.9957 26.5434 11.0989L25.25 12.0387C25.1865 12.0849 25.1598 12.1666 25.1841 12.2413L25.6782 13.7619C25.7324 13.9288 25.5413 14.0678 25.3992 13.9646L24.1058 13.0248C24.0423 12.9786 23.9563 12.9786 23.8927 13.0248L22.5993 13.9646C22.4572 14.0678 22.266 13.9288 22.3203 13.7619L22.8144 12.2413C22.8386 12.1666 22.8121 12.0849 22.7486 12.0387L21.4551 11.0989C21.313 10.9957 21.386 10.771 21.5616 10.771H23.1604C23.2389 10.771 23.3085 10.7205 23.3328 10.6458L23.8268 9.12528Z" fill="black"/>
<path fill-rule="evenodd" clip-rule="evenodd" d="M16.0225 19.3959C15.4716 19.5631 14.9064 19.7464 14.3243 19.9459C13.8866 20.096 13.4031 19.9262 13.1554 19.5353C12.9077 19.1446 12.9604 18.635 13.2827 18.3033L13.2904 18.2951C13.2987 18.2863 13.3125 18.2714 13.3311 18.251C13.3682 18.2101 13.424 18.147 13.4922 18.0652C13.6295 17.9005 13.8125 17.665 13.9942 17.3847C14.3777 16.793 14.6667 16.1361 14.6667 15.5714C14.6667 10.312 18.819 6 24 6C29.181 6 33.3333 10.312 33.3333 15.5714C33.3333 16.1361 33.6223 16.793 34.0058 17.3847C34.1875 17.665 34.3705 17.9005 34.5078 18.0652C34.576 18.147 34.6318 18.2101 34.6689 18.251C34.6713 18.2536 34.6735 18.256 34.6757 18.2584C34.6909 18.2751 34.7023 18.2874 34.7096 18.2951L34.7173 18.3033C35.0396 18.635 35.0923 19.1446 34.8447 19.5353C34.5969 19.9262 34.1134 20.096 33.6757 19.9459C33.0937 19.7464 32.5284 19.5631 31.9775 19.3959C31.9924 19.5955 32 19.7969 32 20C32 24.4183 28.4183 28 24 28C19.5817 28 16 24.4183 16 20C16 19.7969 16.0076 19.5955 16.0225 19.3959ZM16.6667 15.5714C16.6667 11.3631 19.9763 8 24 8C28.0237 8 31.3333 11.3631 31.3333 15.5714C31.3333 16.1583 31.4752 16.7211 31.6739 17.2238C29.2957 16.5569 27.1082 16.1748 24.9323 16.0897C24.6215 16.0775 24.3109 16.0714 24 16.0714C23.5826 16.0714 23.1656 16.0824 22.748 16.1043C20.6771 16.2129 18.5879 16.5895 16.3261 17.2238C16.5248 16.7211 16.6667 16.1583 16.6667 15.5714ZM18.1153 18.8227C18.0397 19.2028 18 19.5963 18 20C18 23.3137 20.6863 26 24 26C27.3137 26 30 23.3137 30 20C30 19.5963 29.9603 19.2027 29.8847 18.8227C28.2748 18.4331 26.771 18.1971 25.297 18.1099C24.8627 18.0842 24.431 18.0714 24 18.0714C23.6275 18.0714 23.2546 18.081 22.8799 18.1002C21.3493 18.1785 19.7896 18.4175 18.1153 18.8227Z" fill="black"/>
<path fill-rule="evenodd" clip-rule="evenodd" d="M35 24L40 21.1429V9H42V32L35 29V24ZM40 23.4464L37 25.1606V27.6812L40 28.9669V23.4464Z" fill="black"/>
<path d="M12.1424 29.3384C12.6362 29.0912 12.8362 28.4904 12.5889 27.9965C12.3417 27.5027 11.7409 27.3028 11.247 27.55L7.5523 29.3998C7.05845 29.6471 6.85854 30.2478 7.10579 30.7417C7.35304 31.2355 7.95382 31.4354 8.44766 31.1882L12.1424 29.3384Z" fill="black"/>
<path d="M12.1056 35.5528C12.3526 35.0588 12.9532 34.8586 13.4472 35.1056L15 35.882L16.5528 35.1056C17.0468 34.8586 17.6474 35.0588 17.8944 35.5528C18.1414 36.0468 17.9412 36.6474 17.4472 36.8944L15.4472 37.8944C15.1657 38.0352 14.8343 38.0352 14.5528 37.8944L12.5528 36.8944C12.0588 36.6474 11.8586 36.0468 12.1056 35.5528Z" fill="black"/>
<path fill-rule="evenodd" clip-rule="evenodd" d="M42 36.5C42 32.4407 31.0755 29.8827 23.4706 30.0066C16.2579 30.1242 6 32.4407 6 36.5V42H42V36.5ZM23.5032 32.0064C26.5179 31.9573 30.1021 32.3566 33.2226 33.1113L31.156 40H8V36.5C8 36.4117 8.04793 36.0274 8.90015 35.4008C9.72521 34.7943 11.0008 34.2008 12.6361 33.6813C15.8855 32.6489 20.0556 32.0626 23.5032 32.0064ZM35.151 33.6434L33.244 40H40V36.5C40 36.458 39.9676 36.0593 39.0191 35.3882C38.1468 34.771 36.8227 34.1682 35.151 33.6434Z" fill="black"/>
</svg>

<svg
  xmlns="http://www.w3.org/2000/svg"
  width="24"
  height="24"
  viewBox="0 0 24 24"
  fill="none"
  stroke="currentColor"
  stroke-width="2"
  stroke-linecap="round"
  stroke-linejoin="round"
>
  <path d="M23.827 9.125a.181.181 0 0 1 .345 0l.494 1.52a.18.18 0 0 0 .172.126h1.599c.175 0 .248.225.106.328l-1.293.94a.18.18 0 0 0-.066.202l.494 1.52a.181.181 0 0 1-.279.204l-1.293-.94a.18.18 0 0 0-.213 0l-1.294.94a.181.181 0 0 1-.279-.203l.494-1.52a.18.18 0 0 0-.065-.203l-1.294-.94a.181.181 0 0 1 .107-.328h1.598c.079 0 .148-.05.173-.125z" />
  <path
    fill-rule="evenodd"
    d="M16.023 19.396q-.826.25-1.699.55a1 1 0 0 1-1.041-1.643l.007-.008a4 4 0 0 0 .202-.23c.137-.165.32-.4.502-.68.384-.592.673-1.249.673-1.814C14.667 10.312 18.819 6 24 6s9.333 4.312 9.333 9.571c0 .565.29 1.222.673 1.814a7 7 0 0 0 .663.866l.007.007q.022.026.034.037l.007.008a1 1 0 0 1-1.041 1.643q-.873-.3-1.699-.55.023.299.023.604a8 8 0 1 1-15.977-.604m.644-3.825C16.667 11.363 19.977 8 24 8c4.024 0 7.333 3.363 7.333 7.571 0 .587.142 1.15.34 1.653-2.377-.667-4.565-1.05-6.74-1.134a24 24 0 0 0-2.185.014c-2.07.109-4.16.486-6.422 1.12.199-.503.34-1.066.34-1.653m1.448 3.252a6 6 0 1 0 11.77 0c-1.61-.39-3.114-.626-4.588-.713a22 22 0 0 0-2.417-.01c-1.53.078-3.09.317-4.765.723"
    clip-rule="evenodd"
  />
  <path
    fill-rule="evenodd"
    d="m35 24 5-2.857V9h2v23l-7-3zm5-.554-3 1.715v2.52l3 1.286z"
    clip-rule="evenodd"
  />
  <path d="M12.142 29.338a1 1 0 1 0-.895-1.788L7.552 29.4a1 1 0 0 0 .896 1.788z" />
  <path d="M12.106 35.553a1 1 0 0 1 1.341-.447l1.553.776 1.553-.776a1 1 0 1 1 .894 1.788l-2 1a1 1 0 0 1-.894 0l-2-1a1 1 0 0 1-.447-1.341" />
  <path
    fill-rule="evenodd"
    d="M42 36.5c0-4.06-10.924-6.617-18.53-6.493C16.259 30.124 6 32.44 6 36.5V42h36zm-18.497-4.494c3.015-.049 6.6.35 9.72 1.105L31.156 40H8v-3.5c0-.088.048-.473.9-1.1.825-.606 2.1-1.2 3.736-1.719 3.25-1.032 7.42-1.618 10.867-1.675m11.648 1.637L33.244 40H40v-3.5c0-.042-.032-.44-.98-1.112-.873-.617-2.197-1.22-3.869-1.745"
    clip-rule="evenodd"
  />
</svg>
